icons/fm-clock.svg

<svg
  viewBox="0 0 16 16"
  xmlns="http://www.w3.org/2000/svg"
>
  <path
    d="m 8,-1.90735e-5 c -4.41824,0 -8,3.5815981735 -8,7.9999981735 0,4.4184399 3.58168,8.0000399 8,8.0000399 4.4182,0 8,-3.5816 8,-8.0000399 C 16,3.5815791 12.4182,-1.90735e-5 8,-1.90735e-5 Z M 8,1.5999791 c 3.5346,0 6.4,2.8656 6.4,6.4 0,3.5344399 -2.8654,6.4000399 -6.4,6.4000399 -3.53464,0 -6.4,-2.8656 -6.4,-6.4000399 0,-3.5344 2.86536,-6.4 6.4,-6.4 z m 0,1.6 c -0.44184,0 -0.8,0.3584 -0.8,0.8 v 4 c 0,0.212 0.07496,0.4248 0.22496,0.5752 l 2.4,2.4000399 c 0.31244,0.312 0.83764,0.312 1.15004,0 0.3124,-0.3128 0.3124,-0.8376 0,-1.1504299 L 8.8,7.6495891 v -3.64961 c 0,-0.4416 -0.35816,-0.8 -0.8,-0.8 z"
  />
</svg>

<svg
  viewBox="0 0 16 16"
  xmlns="http://www.w3.org/2000/svg"
>
  <path
    d="M8 -3.8147e-05C3.58176 -3.8147e-05 0 3.58156 0 7.99996C0 12.4184 3.58168 16 8 16C12.4182 16 16 12.4184 16 7.99996C16 3.58156 12.4182 -3.8147e-05 8 -3.8147e-05ZM8 1.59996C11.5346 1.59996 14.4 4.46556 14.4 7.99996C14.4 11.5344 11.5346 14.4 8 14.4C4.46536 14.4 1.6 11.5344 1.6 7.99996C1.6 4.46556 4.46536 1.59996 8 1.59996ZM8 3.19996C7.55816 3.19996 7.2 3.55836 7.2 3.99996V7.99996C7.2 8.21196 7.27496 8.42476 7.42496 8.57516L9.82496 10.9752C10.1374 11.2872 10.6626 11.2872 10.975 10.9752C11.2874 10.6624 11.2874 10.1376 10.975 9.82477L8.8 7.64957V3.99996C8.8 3.55836 8.44184 3.19996 8 3.19996Z"
  />
</svg>
